app/images/sub-logo.svg

<svg width="65" height="20" viewBox="0 0 65 20" fill="none" xmlns="http://www.w3.org/2000/svg">
<path fill-rule="evenodd" clip-rule="evenodd" d="M12.1031 5C9.25829 5 7.17549 7.09333 7.17549 10C7.17549 11.1333 7.49299 12.1333 8.05179 12.9467H0.977899C0.431799 12.9467 0 13.4133 0 13.9733V15H12.1031H12.1158C14.9606 15 17.0307 12.9067 17.0307 10C17.018 7.09333 14.9606 5 12.1031 5ZM12.0904 13.2533C10.3886 13.2533 9.14399 11.9067 9.14399 10C9.14399 8.12 10.3759 6.74667 12.0904 6.74667C13.8176 6.74667 15.0495 8.12 15.0495 10C15.0495 11.9067 13.8176 13.2533 12.0904 13.2533ZM28.6899 10C28.6899 12.9067 26.6325 15 23.775 15C20.9302 15 18.8474 12.9067 18.8474 10C18.8474 7.09333 20.9302 5 23.775 5C26.6198 5 28.6899 7.09333 28.6899 10ZM20.8159 10C20.8159 11.9067 22.0478 13.2533 23.7623 13.2533C25.4895 13.2533 26.7214 11.9067 26.7214 10C26.7214 8.12 25.4895 6.74667 23.7623 6.74667C22.0478 6.74667 20.8159 8.12 20.8159 10ZM39.0918 9.25333V13.9733H39.0537V15H38.0758C37.5424 15 37.0979 14.5467 37.0979 13.9733V9.25333C37.0979 7.70667 36.1835 6.69333 34.7738 6.69333C33.3641 6.69333 32.4497 7.72 32.4497 9.25333V15H31.4718C30.9384 15 30.4939 14.5467 30.4939 13.9733V9.25333C30.4939 6.72 32.2338 5 34.7738 5C37.3392 5 39.0918 6.72 39.0918 9.25333ZM49.4923 5.82667V5H48.5271C47.981 5 47.5492 5.46667 47.5492 6.02667V10.76C47.5492 12.2933 46.6094 13.2933 45.1997 13.2933C43.79 13.2933 42.8756 12.2933 42.8756 10.76V9.58667V6.22667V5.82667V5H41.9103C41.3642 5 40.9324 5.45333 40.9324 6.02667V10.7733C40.9324 13.2933 42.6724 15 45.2251 15C47.7651 15 49.505 13.28 49.505 10.7733V8.36V6.22667L49.4923 5.82667ZM58.1673 6.85333C58.7388 5.69333 59.9072 5 61.3931 5C63.5775 5 65.0126 6.53333 64.9999 8.86667V15H64.022C63.4886 15 63.0441 14.5467 63.0441 13.9733V8.81333C63.0441 7.52 62.2821 6.64 61.101 6.64C59.9199 6.64 59.1325 7.52 59.1325 8.81333V12.3067V13.7733V14.1733V14.8533V15H58.1673C57.6339 15 57.1894 14.5467 57.1894 13.9733V8.81333C57.1894 7.52 56.402 6.64 55.2209 6.64C54.0398 6.64 53.2778 7.52 53.2778 8.81333V13.96V14.9867H52.2999C51.7665 14.9867 51.3219 14.5333 51.3219 13.96V8.86667C51.3219 6.53333 52.7444 5 54.9415 5C56.4274 5 57.5958 5.69333 58.1673 6.85333Z" fill="black"/>
</svg>

<svg width="65" height="20" fill="none" xmlns="http://www.w3.org/2000/svg"><path fill-rule="evenodd" clip-rule="evenodd" d="M12.103 5c-2.845 0-4.928 2.093-4.928 5 0 1.133.318 2.133.877 2.947H.978c-.546 0-.978.466-.978 1.026V15h12.116c2.845 0 4.915-2.093 4.915-5-.013-2.907-2.07-5-4.928-5zm-.013 8.253c-1.701 0-2.946-1.346-2.946-3.253 0-1.88 1.232-3.253 2.946-3.253 1.728 0 2.96 1.373 2.96 3.253 0 1.907-1.232 3.253-2.96 3.253zM28.69 10c0 2.907-2.058 5-4.915 5-2.845 0-4.928-2.093-4.928-5s2.083-5 4.928-5c2.845 0 4.915 2.093 4.915 5zm-7.874 0c0 1.907 1.232 3.253 2.946 3.253 1.727 0 2.96-1.346 2.96-3.253 0-1.88-1.233-3.253-2.96-3.253-1.714 0-2.946 1.373-2.946 3.253zm18.276-.747v4.72h-.038V15h-.978c-.534 0-.978-.453-.978-1.027v-4.72c0-1.546-.914-2.56-2.324-2.56-1.41 0-2.324 1.027-2.324 2.56V15h-.978c-.534 0-.978-.453-.978-1.027v-4.72c0-2.533 1.74-4.253 4.28-4.253 2.565 0 4.318 1.72 4.318 4.253zm10.4-3.426V5h-.965c-.546 0-.978.467-.978 1.027v4.733c0 1.533-.94 2.533-2.35 2.533-1.409 0-2.323-1-2.323-2.533V5h-.966c-.546 0-.978.453-.978 1.027v4.746c0 2.52 1.74 4.227 4.293 4.227 2.54 0 4.28-1.72 4.28-4.227V6.227l-.013-.4zm8.675 1.026C58.74 5.693 59.907 5 61.393 5c2.184 0 3.62 1.533 3.607 3.867V15h-.978c-.533 0-.978-.453-.978-1.027v-5.16c0-1.293-.762-2.173-1.943-2.173s-1.968.88-1.968 2.173V15h-.966c-.533 0-.978-.453-.978-1.027v-5.16c0-1.293-.787-2.173-1.968-2.173s-1.943.88-1.943 2.173v6.174H52.3c-.533 0-.978-.454-.978-1.027V8.867c0-2.334 1.422-3.867 3.62-3.867 1.485 0 2.654.693 3.225 1.853z" fill="#000"/></svg>
